X: 40095
T: Tiarnan And Stephanie's
R: slip jig
M: 9/8
K: Gmajor
|:g3 dBd edB|c2 e edc def|gbg dBd edB|1 c2 e edB G3:|2 c2 e edB G2 A||
B2 e efg fed|c2 e efg f2 e|B2 e efg fed|a2 a agf e2 d|
B2 e efg fed|c2 e efg fga|bag agf g2 d|e2 e edc def||

